icons/svg/ray-vertex.svg

﻿<?xml version="1.0" encoding="utf-8"?>
<!DOCTYPE svg PUBLIC "-//W3C//DTD SVG 1.1//EN" "http://www.w3.org/Graphics/SVG/1.1/DTD/svg11.dtd">
<svg xmlns="http://www.w3.org/2000/svg" xmlns:xlink="http://www.w3.org/1999/xlink" version="1.1" baseProfile="full" width="24" height="24" viewBox="0 0 24.00 24.00" enable-background="new 0 0 24.00 24.00" xml:space="preserve">
	<path fill="#000000" fill-opacity="1" stroke-width="0.2" stroke-linejoin="miter" d="M 2,11L 9.1707,11C 9.58254,9.83481 10.6938,9 12,9C 13.3062,9 14.4175,9.83481 14.8293,11L 22,11L 22,13L 14.8293,13C 14.4175,14.1652 13.3062,15 12,15C 10.6938,15 9.58254,14.1652 9.17071,13L 2,13L 2,11 Z "/>
</svg>

<svg xmlns="http://www.w3.org/2000/svg" version="1.1" baseProfile="full" width="24" height="24" viewBox="0 0 24.00 24.00" xml:space="preserve"><path fill="#000" fill-opacity="1" stroke-width=".2" stroke-linejoin="miter" d="M2 11h7.17c.413-1.165 1.524-2 2.83-2s2.418.835 2.83 2H22v2h-7.17c-.412 1.165-1.524 2-2.83 2s-2.417-.835-2.83-2H2v-2z"/></svg>
